X:1
T:O Sacrum convivium
T:Giovanni Maria Sabino
T:Source : Ghirlanda Sacra---Venetia---Ang.Gardano (B.Magni)---1625. Editor : André Vierendeels (19/12/16). 
T:Notes : Original clefs : C1, F4 Editorial accidentals above the staff m 12 in BC "C"  notated  as "E" in original print Dotted bracket indicates black notes Music collected by Leonardo Simonetti 
T:O Sacrum convivium
T:©
T:©
T:©
T:©
C:Giovanni Maria Sabino
Z:©
%%score 1 2
L:1/8
Q:1/4=120
M:4/4
K:F
V:1 treble nm="Soprano" snm="S"
V:2 bass nm="MusicXML Part"
V:1
 B8 | c8 | d8- | d4 A4 | ^F4 F2 F2 | G6 A2 | ^F8 | z2 ^F2 A4- | A2 A2 d4- | d4 G2 G2 | AB c4 =B2 | %11
w: O|Sa-|crum,|_ O|Sa- crum con-|vi- vi-|um,|in quo,|_ in quo|_ Chri- stus|su- * * mi-|
"^b" c4 c2 B2 | B6 ^F2 | G6 ^F2 | G8 | G4 d3 d | d4 dcdA | B8 | A3 A A4 | c2 c2 ^c4- | c4 d4 | %21
w: tur, Chri- stus|su- *|* mi-|tur,|re- co- li-|tur me- * * *||mo- ri- a|Pas- si- o-|* nis|
 d4 ^c4 | d8 | z2 A2 ^F3 F | ^F4 d2 =B2- | B=B B2 d2 G/A/G/A/ | %26
w: e- *|ius,|re- co- li-|tur, re- co-|* li- tur me- mo- * * *|
 B/d/B/c/ A/B/G/A/ F/B/A/B/ G/d/c/d/ | A2 B4 A2 | B4 F2 ^F2 |"^-natural" GAFG E2 GF | E2 GF E4 | %31
w: |* * ri-|a Pas- si-|o- * * * * * *|nis e- * *|
 D8 |[M:6/4] z2 d2 d2 d2 c3 B | A2 A2 A2 A2 G3 F | E2 c2 c2 c2 B3 A | G2 A2 B2 B4 A2 | %36
w: ius,|mens im- ple- * *|tur, mens im- ple- * *|tur, mens im- ple- * *|* * tur, gra- ti-|
 B2 B2 AB G4 G2 |[M:3/4] A6 |[M:4/4] FG AB cd _ed | d3 c c4 | c/d/B/c/ A/c/B/A/ G2 F2 | G8 | %42
w: a, gra- * * * ti-|a,|et _ fu- * tu- * rae _|glo- ri- ae|no- * * * bis _ _ _ pi- gnus|da-|
 F4 d/_e/c/d/ B/d/c/B/ | A2 G2 G/A/B/A/ B/c/B/c/ | d/A/B/c/ ^F/G/A/B/ A/B/G/c/ B/c/A/B/ | %45
w: tur no- * * * bis _ _ _|pi- gnus da- * * * * * * *||
 AB G2 ^F2 G2 | A8 | G8 |] %48
w: ||tur.|
V:2
"^BC" G,8 | _E,8 | D,8- | D,8 | D,8 | _E,8 | D,8 | D,8 | D,8 | _E,8 | D,2 C,2 G,,4 | C,8 | %12
 _E,4 D,4 | _E,4 D,4 | G,,8 | G,8 | D,8 | G,8 | F,8 | F,,2 F,,2 A,,4- | A,,4 B,,4 | G,,4 A,,4 | %22
 D,8 | D,8 | D,6 G,,2 | G,,4 D,2 _E,2 | B,,4 B,,4 | F,8 | B,,4 B,,2 A,,2 | G,,8 | A,,2 G,,2 A,,4 | %31
 D,8 |[M:6/4] z2 B,2 B,2 B,2 A,3 G, | F,2 F,2 F,2 F,2 E,3 D, | C,2 A,,2 A,,2 A,,2 B,,4 | %35
 C,4 B,,2 F,4 F,2 | B,,4 D,2 C,4 C,2 |[M:3/4] F,,6 |[M:4/4] F,4 F,2 C,2 | F,,2 G,,2 C,4 | %40
 F,,2 G,,2 A,,2 B,,2 | C,8 | F,,4 G,,A,,B,,C, | D,2 _E,2 E,4 | D,8 | D,8 | D,8 | G,,8 |] %48

